resources/haticons/SVG/align-left.svg

<!-- Generated by IcoMoon.io -->
<svg version="1.1" xmlns="http://www.w3.org/2000/svg" width="24" height="24" viewBox="0 0 24 24">
<title>align-left</title>
<path d="M23.269 1.362h-22.538c-0.377 0-0.685-0.308-0.685-0.685 0-0.369 0.308-0.677 0.685-0.677h22.538c0.377 0 0.685 0.308 0.685 0.685s-0.308 0.677-0.685 0.677zM14.709 7.028h-13.978c-0.377 0-0.685-0.308-0.685-0.685s0.308-0.685 0.685-0.685h13.978c0.377 0 0.685 0.308 0.685 0.685s-0.308 0.685-0.685 0.685zM23.269 12.685h-22.538c-0.377 0-0.685-0.308-0.685-0.685s0.308-0.685 0.685-0.685h22.538c0.377 0 0.685 0.308 0.685 0.685s-0.308 0.685-0.685 0.685zM14.709 18.343h-13.978c-0.377 0-0.685-0.308-0.685-0.685s0.308-0.685 0.685-0.685h13.978c0.377 0 0.685 0.308 0.685 0.685s-0.308 0.685-0.685 0.685zM23.269 24h-22.538c-0.377 0-0.685-0.308-0.685-0.685s0.308-0.685 0.685-0.685h22.538c0.377 0 0.685 0.308 0.685 0.685s-0.308 0.685-0.685 0.685z"></path>
</svg>

<svg xmlns="http://www.w3.org/2000/svg" width="24" height="24"><path d="M23.269 1.362H.731A.687.687 0 0 1 .046.677C.046.308.354 0 .731 0h22.538a.68.68 0 1 1 0 1.362zm-8.56 5.666H.731c-.377 0-.685-.308-.685-.685s.308-.685.685-.685h13.978c.377 0 .685.308.685.685s-.308.685-.685.685zm8.56 5.657H.731c-.377 0-.685-.308-.685-.685s.308-.685.685-.685h22.538c.377 0 .685.308.685.685s-.308.685-.685.685zm-8.56 5.658H.731c-.377 0-.685-.308-.685-.685s.308-.685.685-.685h13.978c.377 0 .685.308.685.685s-.308.685-.685.685zM23.269 24H.731c-.377 0-.685-.308-.685-.685s.308-.685.685-.685h22.538c.377 0 .685.308.685.685s-.308.685-.685.685z"/></svg>
